clients/portal/components/icon/svgs/message.svg

<svg xmlns="http://www.w3.org/2000/svg" height="24" viewBox="0 0 24 24" width="24"><path d="M0 0h24v24H0V0z" fill="currentColor"/><path d="M4 4h16v12H5.17L4 17.17V4m0-2c-1.1 0-1.99.9-1.99 2L2 22l4-4h14c1.1 0 2-.9 2-2V4c0-1.1-.9-2-2-2H4zm2 10h12v2H6v-2zm0-3h12v2H6V9zm0-3h12v2H6V6z"/></svg>

<svg width="24" height="24" viewBox="0 0 24 24" fill="none" xmlns="http://www.w3.org/2000/svg">
<path d="M20 2H4C2.9 2 2.01 2.9 2.01 4L2 22L6 18H20C21.1 18 22 17.1 22 16V4C22 2.9 21.1 2 20 2ZM18 14H6V12H18V14ZM18 11H6V9H18V11ZM18 8H6V6H18V8Z" fill="#475569"/>
</svg>
